Newaita-dark/apps/32/com.github.georgekap1an.chores.svg

<svg height="32" viewBox="0 0 32 32" width="32" xmlns="http://www.w3.org/2000/svg" xmlns:xlink="http://www.w3.org/1999/xlink"><linearGradient id="a" gradientUnits="userSpaceOnUse" x1="15.87652" x2="15.87652" y1="28.033936" y2="29.35698000003"><stop offset="0" stop-opacity=".27451"/><stop offset="1" stop-opacity="0"/></linearGradient><linearGradient id="b"><stop offset="0" stop-opacity=".313726"/><stop offset=".222222" stop-opacity=".27451"/><stop offset="1" stop-opacity="0"/></linearGradient><radialGradient id="c" cx="450.908936" cy="189.579361" gradientTransform="matrix(.00000017 -.0781325 -.140638 -.0000001 50.146086 63.595333)" gradientUnits="userSpaceOnUse" r="21.166656" xlink:href="#b"/><radialGradient id="d" cx="450.908936" cy="189.579361" gradientTransform="matrix(-.00000017 .0781325 .140638 .0000001 -18.393049 -7.52748)" gradientUnits="userSpaceOnUse" r="21.166656" xlink:href="#b"/><radialGradient id="e" cx="450.908936" cy="189.579361" gradientTransform="matrix(-.00000017 -.0781325 .140638 -.0000001 -18.393049 63.595333)" gradientUnits="userSpaceOnUse" r="21.166656" xlink:href="#b"/><radialGradient id="f" cx="450.908936" cy="189.579361" gradientTransform="matrix(.00000017 .0781325 -.140638 .0000001 50.146084 -7.527479)" gradientUnits="userSpaceOnUse" r="21.166656" xlink:href="#b"/><linearGradient id="g" gradientTransform="matrix(.0753497 0 0 .217412 -5.854013 33.641348)" gradientUnits="userSpaceOnUse" x1="323.513245" x2="323.513245" y1="-141.414581" y2="-25.791676"><stop offset="0" stop-color="#8d6e63"/><stop offset="1" stop-color="#795548"/></linearGradient><linearGradient id="h" gradientUnits="userSpaceOnUse" x1="254" x2="254" y1="212.333328" y2="-115.75"><stop offset="0" stop-color="#e0e0e0"/><stop offset="1" stop-color="#eee"/></linearGradient><linearGradient id="i" gradientUnits="userSpaceOnUse" x1="15.87648" x2="15.87648" y1="28.03386419623" y2="2.89610370009"><stop offset="0" stop-color="#424242"/><stop offset="1" stop-color="#616161"/></linearGradient><path d="m7.9375 28.035156h15.878906v1.320313h-15.878906zm0 0" fill="url(#a)"/><path d="m23.816406 28.035156h2.644532v-1.324218h-2.644532zm0 0" fill="url(#c)"/><path d="m7.9375 28.035156h-2.644531v1.320313h2.644531zm0 0" fill="url(#d)"/><path d="m7.9375 28.035156h-2.644531v-1.324218h2.644531zm0 0" fill="url(#e)"/><path d="m23.816406 28.035156h2.644532v1.320313h-2.644532zm0 0" fill="url(#f)"/><path d="m6.613281 6.203125h18.523438c.730469 0 1.324219.59375 1.324219 1.324219v19.183594c0 .730468-.59375 1.324218-1.324219 1.324218h-18.523438c-.730469 0-1.320312-.59375-1.320312-1.324218v-19.183594c0-.730469.589843-1.324219 1.320312-1.324219zm0 0" fill="url(#g)"/><path d="m6.613281 6.296875c-.730469 0-1.320312.589844-1.320312 1.324219v.164062c0-.734375.589843-1.324218 1.320312-1.324218h18.523438c.734375 0 1.324219.589843 1.324219 1.324218v-.164062c0-.734375-.589844-1.324219-1.324219-1.324219zm0 0" fill="#fff" fill-opacity=".392157"/><path d="m6.613281 27.960938c-.730469 0-1.320312-.59375-1.320312-1.324219v-.164063c0 .730469.589843 1.320313 1.320312 1.320313h18.523438c.734375 0 1.324219-.589844 1.324219-1.320313v.164063c0 .730469-.589844 1.324219-1.324219 1.324219zm0 0" fill-opacity=".196078"/><path d="m105.802396-115.759477h296.346701c11.686384 0 21.185477 9.499093 21.185477 21.185477v306.908192c0 11.686384-9.499093 21.185477-21.185477 21.185477h-296.346701c-11.686384 0-21.122982-9.499093-21.122982-21.185477v-306.908192c0-11.686384 9.436598-21.185477 21.122982-21.185477zm0 0" fill="none" stroke="#212121" stroke-linecap="round" stroke-width="3" transform="matrix(.062506 0 0 .062506 0 13.438783)"/><path d="m126.987873-105.135492h254.038241c5.811945 0 10.561491 4.687053 10.561491 10.561492v296.3467c0 5.811945-4.749546 10.561492-10.561491 10.561492h-254.038241c-5.811945 0-10.561491-4.749547-10.561491-10.561492v-296.3467c0-5.874439 4.749546-10.561492 10.561491-10.561492zm0 0" fill="url(#h)" stroke="#212121" stroke-linecap="round" stroke-linejoin="round" stroke-width="3" transform="matrix(.062506 0 0 .062506 0 13.438783)"/><path d="m11.90625 2.894531c-.367188 0-.660156.296875-.660156.664063v.660156h-1.984375c-.367188 0-.660157.296875-.660157.660156v2.648438c0 .367187.292969.660156.660157.660156h13.230469c.367187 0 .660156-.292969.660156-.660156v-2.648438c0-.363281-.292969-.660156-.660156-.660156h-1.984376v-.660156c0-.367188-.296874-.664063-.664062-.664063zm0 0" fill="url(#i)"/><path d="m8.601562 7.527344v.660156c0 .367188.292969.664062.660157.664062h13.230469c.367187 0 .660156-.296874.660156-.664062v-.660156c0 .367187-.292969.660156-.660156.660156h-13.230469c-.367188 0-.660157-.292969-.660157-.660156zm0 0" fill-opacity=".235294"/><path d="m11.90625 2.894531c-.367188 0-.660156.296875-.660156.664063v.246094c0-.367188.292968-.660157.660156-.660157h7.9375c.367188 0 .664062.292969.664062.660157v-.246094c0-.367188-.296874-.664063-.664062-.664063zm-2.644531 1.324219c-.367188 0-.660157.296875-.660157.660156v.25c0-.367187.292969-.660156.660157-.660156h1.984375v-.25zm11.246093 0v.25h1.984376c.367187 0 .660156.292969.660156.660156v-.25c0-.363281-.292969-.660156-.660156-.660156zm0 0" fill="#fff" fill-opacity=".313726"/><path d="m719.931288 175.022665c-22.202605 0-39.91745 17.951043-39.91745 40.153648v39.91745h-119.988548c-22.202605 0-39.91745 17.951043-39.91745 39.91745v160.142196c0 22.202606 17.714845 39.91745 39.91745 39.91745h800.002386c22.202605 0 39.91745-17.714844 39.91745-39.91745v-160.142196c0-21.966407-17.714845-39.91745-39.91745-39.91745h-119.988548v-39.91745c0-22.202605-17.951043-40.153648-40.153648-40.153648zm0 0" fill="none" stroke="#212121" stroke-linecap="round" stroke-linejoin="round" stroke-width="11.338583" transform="scale(.016538)"/><path d="m7.277344 26.050781v.328125c0 .367188.292968.664063.660156.664063h15.878906c.363282 0 .660156-.296875.660156-.664063v-.328125c0 .363281-.296874.660157-.660156.660157h-15.878906c-.367188 0-.660156-.296876-.660156-.660157zm0 0" fill-opacity=".235294"/><g fill="#78909c"><path d="m12.570312 10.171875h9.921876c.363281 0 .660156.296875.660156.664063 0 .363281-.296875.660156-.660156.660156h-9.921876c-.367187 0-.664062-.296875-.664062-.660156 0-.367188.296875-.664063.664062-.664063zm0 0"/><path d="m12.570312 14.140625h9.921876c.363281 0 .660156.296875.660156.664063 0 .363281-.296875.660156-.660156.660156h-9.921876c-.367187 0-.664062-.296875-.664062-.660156 0-.367188.296875-.664063.664062-.664063zm0 0"/><path d="m12.570312 18.109375h9.921876c.363281 0 .660156.296875.660156.664063 0 .363281-.296875.660156-.660156.660156h-9.921876c-.367187 0-.664062-.296875-.664062-.660156 0-.367188.296875-.664063.664062-.664063zm0 0"/><path d="m12.570312 22.082031h9.921876c.363281 0 .660156.273438.660156.609375v.101563c0 .335937-.296875.609375-.660156.609375h-9.921876c-.367187 0-.664062-.273438-.664062-.609375v-.101563c0-.335937.296875-.609375.664062-.609375zm0 0"/><path d="m9.921875 13.480469c-.730469 0-1.320313.589843-1.320313 1.324219 0 .730468.589844 1.320312 1.320313 1.320312.734375 0 1.324219-.589844 1.324219-1.320312 0-.734376-.589844-1.324219-1.324219-1.324219zm0 .660156c.367187 0 .664063.296875.664063.664063 0 .367187-.296876.660156-.664063.660156s-.660156-.292969-.660156-.660156c0-.367188.292969-.664063.660156-.664063zm0 0"/><path d="m9.921875 17.449219c-.730469 0-1.320313.589843-1.320313 1.324219 0 .730468.589844 1.320312 1.320313 1.320312.734375 0 1.324219-.589844 1.324219-1.320312 0-.734376-.589844-1.324219-1.324219-1.324219zm0 .660156c.367187 0 .664063.296875.664063.664063 0 .367187-.296876.660156-.664063.660156s-.660156-.292969-.660156-.660156c0-.367188.292969-.664063.660156-.664063zm0 0"/><path d="m9.921875 21.417969c-.730469 0-1.320313.589843-1.320313 1.324219 0 .734374.589844 1.324218 1.320313 1.324218.734375 0 1.324219-.589844 1.324219-1.324218 0-.734376-.589844-1.324219-1.324219-1.324219zm0 .664062c.367187 0 .664063.292969.664063.660157 0 .367187-.296876.660156-.664063.660156s-.660156-.292969-.660156-.660156c0-.367188.292969-.660157.660156-.660157zm0 0"/><path d="m9.921875 9.511719c-.730469 0-1.320313.589843-1.320313 1.324219 0 .730468.589844 1.320312 1.320313 1.320312.734375 0 1.324219-.589844 1.324219-1.320312 0-.734376-.589844-1.324219-1.324219-1.324219zm0 .660156c.367187 0 .664063.296875.664063.664063 0 .363281-.296876.660156-.664063.660156s-.660156-.296875-.660156-.660156c0-.367188.292969-.664063.660156-.664063zm0 0"/></g><path d="m137.611859-57.515039 21.122983 21.122983 26.497469-31.746969" fill="none" stroke="#f44336" stroke-linecap="round" stroke-linejoin="round" stroke-width="12" transform="matrix(.062506 0 0 .062506 0 13.438783)"/><path d="m137.611859 5.978898 21.122983 21.122982 26.497469-31.746968" fill="none" stroke="#f44336" stroke-linecap="round" stroke-linejoin="round" stroke-width="12" transform="matrix(.062506 0 0 .062506 0 13.438783)"/></svg>

<?xml version="1.0" encoding="UTF-8"?>
<svg xmlns="http://www.w3.org/2000/svg" xmlns:xlink="http://www.w3.org/1999/xlink" width="32px" height="32px" viewBox="0 0 32 32" version="1.1">
<defs>
<linearGradient id="linear0" gradientUnits="userSpaceOnUse" x1="254" y1="233.5" x2="254" y2="254.666672" gradientTransform="matrix(0.062506,0,0,0.062506,-0.00000381506,13.438785)">
<stop offset="0" style="stop-color:rgb(0%,0%,0%);stop-opacity:0.27451;"/>
<stop offset="1" style="stop-color:rgb(0%,0%,0%);stop-opacity:0;"/>
</linearGradient>
<radialGradient id="radial0" gradientUnits="userSpaceOnUse" cx="450.908936" cy="189.579361" fx="450.908936" fy="189.579361" r="21.166656" gradientTransform="matrix(0.00000017417,-0.0781325,-0.140638,-0.000000101539,50.146086,63.595333)">
<stop offset="0" style="stop-color:rgb(0%,0%,0%);stop-opacity:0.313726;"/>
<stop offset="0.222222" style="stop-color:rgb(0%,0%,0%);stop-opacity:0.27451;"/>
<stop offset="1" style="stop-color:rgb(0%,0%,0%);stop-opacity:0;"/>
</radialGradient>
<radialGradient id="radial1" gradientUnits="userSpaceOnUse" cx="450.908936" cy="189.579361" fx="450.908936" fy="189.579361" r="21.166656" gradientTransform="matrix(-0.00000017417,0.0781325,0.140638,0.000000101539,-18.393049,-7.52748)">
<stop offset="0" style="stop-color:rgb(0%,0%,0%);stop-opacity:0.313726;"/>
<stop offset="0.222222" style="stop-color:rgb(0%,0%,0%);stop-opacity:0.27451;"/>
<stop offset="1" style="stop-color:rgb(0%,0%,0%);stop-opacity:0;"/>
</radialGradient>
<radialGradient id="radial2" gradientUnits="userSpaceOnUse" cx="450.908936" cy="189.579361" fx="450.908936" fy="189.579361" r="21.166656" gradientTransform="matrix(-0.00000017417,-0.0781325,0.140638,-0.000000101539,-18.393049,63.595333)">
<stop offset="0" style="stop-color:rgb(0%,0%,0%);stop-opacity:0.313726;"/>
<stop offset="0.222222" style="stop-color:rgb(0%,0%,0%);stop-opacity:0.27451;"/>
<stop offset="1" style="stop-color:rgb(0%,0%,0%);stop-opacity:0;"/>
</radialGradient>
<radialGradient id="radial3" gradientUnits="userSpaceOnUse" cx="450.908936" cy="189.579361" fx="450.908936" fy="189.579361" r="21.166656" gradientTransform="matrix(0.00000017417,0.0781325,-0.140638,0.000000101539,50.146084,-7.527479)">
<stop offset="0" style="stop-color:rgb(0%,0%,0%);stop-opacity:0.313726;"/>
<stop offset="0.222222" style="stop-color:rgb(0%,0%,0%);stop-opacity:0.27451;"/>
<stop offset="1" style="stop-color:rgb(0%,0%,0%);stop-opacity:0;"/>
</radialGradient>
<linearGradient id="linear1" gradientUnits="userSpaceOnUse" x1="323.513245" y1="-141.414581" x2="323.513245" y2="-25.791676" gradientTransform="matrix(0.0753497,0,0,0.217412,-5.854013,33.641348)">
<stop offset="0" style="stop-color:rgb(55.29412%,43.137255%,38.82353%);stop-opacity:1;"/>
<stop offset="1" style="stop-color:rgb(47.450981%,33.333334%,28.235295%);stop-opacity:1;"/>
</linearGradient>
<linearGradient id="linear2" gradientUnits="userSpaceOnUse" x1="254" y1="212.333328" x2="254" y2="-115.75" >
<stop offset="0" style="stop-color:rgb(87.843138%,87.843138%,87.843138%);stop-opacity:1;"/>
<stop offset="1" style="stop-color:rgb(93.333334%,93.333334%,93.333334%);stop-opacity:1;"/>
</linearGradient>
<linearGradient id="linear3" gradientUnits="userSpaceOnUse" x1="960" y1="1695.118164" x2="960" y2="175.118134" gradientTransform="matrix(0.016538,0,0,0.016538,0,0)">
<stop offset="0" style="stop-color:rgb(25.882354%,25.882354%,25.882354%);stop-opacity:1;"/>
<stop offset="1" style="stop-color:rgb(38.039216%,38.039216%,38.039216%);stop-opacity:1;"/>
</linearGradient>
</defs>
<g id="surface1">
<path style=" stroke:none;fill-rule:nonzero;fill:url(#linear0);" d="M 7.9375 28.035156 L 23.816406 28.035156 L 23.816406 29.355469 L 7.9375 29.355469 Z M 7.9375 28.035156 "/>
<path style=" stroke:none;fill-rule:nonzero;fill:url(#radial0);" d="M 23.816406 28.035156 L 26.460938 28.035156 L 26.460938 26.710938 L 23.816406 26.710938 Z M 23.816406 28.035156 "/>
<path style=" stroke:none;fill-rule:nonzero;fill:url(#radial1);" d="M 7.9375 28.035156 L 5.292969 28.035156 L 5.292969 29.355469 L 7.9375 29.355469 Z M 7.9375 28.035156 "/>
<path style=" stroke:none;fill-rule:nonzero;fill:url(#radial2);" d="M 7.9375 28.035156 L 5.292969 28.035156 L 5.292969 26.710938 L 7.9375 26.710938 Z M 7.9375 28.035156 "/>
<path style=" stroke:none;fill-rule:nonzero;fill:url(#radial3);" d="M 23.816406 28.035156 L 26.460938 28.035156 L 26.460938 29.355469 L 23.816406 29.355469 Z M 23.816406 28.035156 "/>
<path style=" stroke:none;fill-rule:nonzero;fill:url(#linear1);" d="M 6.613281 6.203125 L 25.136719 6.203125 C 25.867188 6.203125 26.460938 6.796875 26.460938 7.527344 L 26.460938 26.710938 C 26.460938 27.441406 25.867188 28.035156 25.136719 28.035156 L 6.613281 28.035156 C 5.882812 28.035156 5.292969 27.441406 5.292969 26.710938 L 5.292969 7.527344 C 5.292969 6.796875 5.882812 6.203125 6.613281 6.203125 Z M 6.613281 6.203125 "/>
<path style=" stroke:none;fill-rule:nonzero;fill:rgb(100%,100%,100%);fill-opacity:0.392157;" d="M 6.613281 6.296875 C 5.882812 6.296875 5.292969 6.886719 5.292969 7.621094 L 5.292969 7.785156 C 5.292969 7.050781 5.882812 6.460938 6.613281 6.460938 L 25.136719 6.460938 C 25.871094 6.460938 26.460938 7.050781 26.460938 7.785156 L 26.460938 7.621094 C 26.460938 6.886719 25.871094 6.296875 25.136719 6.296875 Z M 6.613281 6.296875 "/>
<path style=" stroke:none;fill-rule:nonzero;fill:rgb(0%,0%,0%);fill-opacity:0.196078;" d="M 6.613281 27.960938 C 5.882812 27.960938 5.292969 27.367188 5.292969 26.636719 L 5.292969 26.472656 C 5.292969 27.203125 5.882812 27.792969 6.613281 27.792969 L 25.136719 27.792969 C 25.871094 27.792969 26.460938 27.203125 26.460938 26.472656 L 26.460938 26.636719 C 26.460938 27.367188 25.871094 27.960938 25.136719 27.960938 Z M 6.613281 27.960938 "/>
<path style="fill:none;stroke-width:3;stroke-linecap:round;stroke-linejoin:miter;stroke:rgb(12.941177%,12.941177%,12.941177%);stroke-opacity:1;stroke-miterlimit:4;" d="M 105.802396 -115.759477 L 402.149097 -115.759477 C 413.835481 -115.759477 423.334574 -106.260384 423.334574 -94.574 L 423.334574 212.334192 C 423.334574 224.020576 413.835481 233.519669 402.149097 233.519669 L 105.802396 233.519669 C 94.116012 233.519669 84.679414 224.020576 84.679414 212.334192 L 84.679414 -94.574 C 84.679414 -106.260384 94.116012 -115.759477 105.802396 -115.759477 Z M 105.802396 -115.759477 " transform="matrix(0.062506,0,0,0.062506,0,13.438783)"/>
<path style="fill-rule:nonzero;fill:url(#linear2);stroke-width:3;stroke-linecap:round;stroke-linejoin:round;stroke:rgb(12.941177%,12.941177%,12.941177%);stroke-opacity:1;stroke-miterlimit:4;" d="M 126.987873 -105.135492 L 381.026114 -105.135492 C 386.838059 -105.135492 391.587605 -100.448439 391.587605 -94.574 L 391.587605 201.7727 C 391.587605 207.584645 386.838059 212.334192 381.026114 212.334192 L 126.987873 212.334192 C 121.175928 212.334192 116.426382 207.584645 116.426382 201.7727 L 116.426382 -94.574 C 116.426382 -100.448439 121.175928 -105.135492 126.987873 -105.135492 Z M 126.987873 -105.135492 " transform="matrix(0.062506,0,0,0.062506,0,13.438783)"/>
<path style=" stroke:none;fill-rule:nonzero;fill:url(#linear3);" d="M 11.90625 2.894531 C 11.539062 2.894531 11.246094 3.191406 11.246094 3.558594 L 11.246094 4.21875 L 9.261719 4.21875 C 8.894531 4.21875 8.601562 4.515625 8.601562 4.878906 L 8.601562 7.527344 C 8.601562 7.894531 8.894531 8.1875 9.261719 8.1875 L 22.492188 8.1875 C 22.859375 8.1875 23.152344 7.894531 23.152344 7.527344 L 23.152344 4.878906 C 23.152344 4.515625 22.859375 4.21875 22.492188 4.21875 L 20.507812 4.21875 L 20.507812 3.558594 C 20.507812 3.191406 20.210938 2.894531 19.84375 2.894531 Z M 11.90625 2.894531 "/>
<path style=" stroke:none;fill-rule:nonzero;fill:rgb(0%,0%,0%);fill-opacity:0.235294;" d="M 8.601562 7.527344 L 8.601562 8.1875 C 8.601562 8.554688 8.894531 8.851562 9.261719 8.851562 L 22.492188 8.851562 C 22.859375 8.851562 23.152344 8.554688 23.152344 8.1875 L 23.152344 7.527344 C 23.152344 7.894531 22.859375 8.1875 22.492188 8.1875 L 9.261719 8.1875 C 8.894531 8.1875 8.601562 7.894531 8.601562 7.527344 Z M 8.601562 7.527344 "/>
<path style=" stroke:none;fill-rule:nonzero;fill:rgb(100%,100%,100%);fill-opacity:0.313726;" d="M 11.90625 2.894531 C 11.539062 2.894531 11.246094 3.191406 11.246094 3.558594 L 11.246094 3.804688 C 11.246094 3.4375 11.539062 3.144531 11.90625 3.144531 L 19.84375 3.144531 C 20.210938 3.144531 20.507812 3.4375 20.507812 3.804688 L 20.507812 3.558594 C 20.507812 3.191406 20.210938 2.894531 19.84375 2.894531 Z M 9.261719 4.21875 C 8.894531 4.21875 8.601562 4.515625 8.601562 4.878906 L 8.601562 5.128906 C 8.601562 4.761719 8.894531 4.46875 9.261719 4.46875 L 11.246094 4.46875 L 11.246094 4.21875 Z M 20.507812 4.21875 L 20.507812 4.46875 L 22.492188 4.46875 C 22.859375 4.46875 23.152344 4.761719 23.152344 5.128906 L 23.152344 4.878906 C 23.152344 4.515625 22.859375 4.21875 22.492188 4.21875 Z M 20.507812 4.21875 "/>
<path style="fill:none;stroke-width:11.338583;stroke-linecap:round;stroke-linejoin:round;stroke:rgb(12.941177%,12.941177%,12.941177%);stroke-opacity:1;stroke-miterlimit:4;" d="M 719.931288 175.022665 C 697.728683 175.022665 680.013838 192.973708 680.013838 215.176313 L 680.013838 255.093763 L 560.02529 255.093763 C 537.822685 255.093763 520.10784 273.044806 520.10784 295.011213 L 520.10784 455.153409 C 520.10784 477.356015 537.822685 495.070859 560.02529 495.070859 L 1360.027676 495.070859 C 1382.230281 495.070859 1399.945126 477.356015 1399.945126 455.153409 L 1399.945126 295.011213 C 1399.945126 273.044806 1382.230281 255.093763 1360.027676 255.093763 L 1240.039128 255.093763 L 1240.039128 215.176313 C 1240.039128 192.973708 1222.088085 175.022665 1199.88548 175.022665 Z M 719.931288 175.022665 " transform="matrix(0.016538,0,0,0.016538,0,0)"/>
<path style=" stroke:none;fill-rule:nonzero;fill:rgb(0%,0%,0%);fill-opacity:0.235294;" d="M 7.277344 26.050781 L 7.277344 26.378906 C 7.277344 26.746094 7.570312 27.042969 7.9375 27.042969 L 23.816406 27.042969 C 24.179688 27.042969 24.476562 26.746094 24.476562 26.378906 L 24.476562 26.050781 C 24.476562 26.414062 24.179688 26.710938 23.816406 26.710938 L 7.9375 26.710938 C 7.570312 26.710938 7.277344 26.414062 7.277344 26.050781 Z M 7.277344 26.050781 "/>
<path style=" stroke:none;fill-rule:nonzero;fill:rgb(47.058824%,56.470591%,61.176473%);fill-opacity:1;" d="M 12.570312 10.171875 L 22.492188 10.171875 C 22.855469 10.171875 23.152344 10.46875 23.152344 10.835938 C 23.152344 11.199219 22.855469 11.496094 22.492188 11.496094 L 12.570312 11.496094 C 12.203125 11.496094 11.90625 11.199219 11.90625 10.835938 C 11.90625 10.46875 12.203125 10.171875 12.570312 10.171875 Z M 12.570312 10.171875 "/>
<path style=" stroke:none;fill-rule:nonzero;fill:rgb(47.058824%,56.470591%,61.176473%);fill-opacity:1;" d="M 12.570312 14.140625 L 22.492188 14.140625 C 22.855469 14.140625 23.152344 14.4375 23.152344 14.804688 C 23.152344 15.167969 22.855469 15.464844 22.492188 15.464844 L 12.570312 15.464844 C 12.203125 15.464844 11.90625 15.167969 11.90625 14.804688 C 11.90625 14.4375 12.203125 14.140625 12.570312 14.140625 Z M 12.570312 14.140625 "/>
<path style=" stroke:none;fill-rule:nonzero;fill:rgb(47.058824%,56.470591%,61.176473%);fill-opacity:1;" d="M 12.570312 18.109375 L 22.492188 18.109375 C 22.855469 18.109375 23.152344 18.40625 23.152344 18.773438 C 23.152344 19.136719 22.855469 19.433594 22.492188 19.433594 L 12.570312 19.433594 C 12.203125 19.433594 11.90625 19.136719 11.90625 18.773438 C 11.90625 18.40625 12.203125 18.109375 12.570312 18.109375 Z M 12.570312 18.109375 "/>
<path style=" stroke:none;fill-rule:nonzero;fill:rgb(47.058824%,56.470591%,61.176473%);fill-opacity:1;" d="M 12.570312 22.082031 L 22.492188 22.082031 C 22.855469 22.082031 23.152344 22.355469 23.152344 22.691406 L 23.152344 22.792969 C 23.152344 23.128906 22.855469 23.402344 22.492188 23.402344 L 12.570312 23.402344 C 12.203125 23.402344 11.90625 23.128906 11.90625 22.792969 L 11.90625 22.691406 C 11.90625 22.355469 12.203125 22.082031 12.570312 22.082031 Z M 12.570312 22.082031 "/>
<path style=" stroke:none;fill-rule:nonzero;fill:rgb(47.058824%,56.470591%,61.176473%);fill-opacity:1;" d="M 9.921875 13.480469 C 9.191406 13.480469 8.601562 14.070312 8.601562 14.804688 C 8.601562 15.535156 9.191406 16.125 9.921875 16.125 C 10.65625 16.125 11.246094 15.535156 11.246094 14.804688 C 11.246094 14.070312 10.65625 13.480469 9.921875 13.480469 Z M 9.921875 14.140625 C 10.289062 14.140625 10.585938 14.4375 10.585938 14.804688 C 10.585938 15.171875 10.289062 15.464844 9.921875 15.464844 C 9.554688 15.464844 9.261719 15.171875 9.261719 14.804688 C 9.261719 14.4375 9.554688 14.140625 9.921875 14.140625 Z M 9.921875 14.140625 "/>
<path style=" stroke:none;fill-rule:nonzero;fill:rgb(47.058824%,56.470591%,61.176473%);fill-opacity:1;" d="M 9.921875 17.449219 C 9.191406 17.449219 8.601562 18.039062 8.601562 18.773438 C 8.601562 19.503906 9.191406 20.09375 9.921875 20.09375 C 10.65625 20.09375 11.246094 19.503906 11.246094 18.773438 C 11.246094 18.039062 10.65625 17.449219 9.921875 17.449219 Z M 9.921875 18.109375 C 10.289062 18.109375 10.585938 18.40625 10.585938 18.773438 C 10.585938 19.140625 10.289062 19.433594 9.921875 19.433594 C 9.554688 19.433594 9.261719 19.140625 9.261719 18.773438 C 9.261719 18.40625 9.554688 18.109375 9.921875 18.109375 Z M 9.921875 18.109375 "/>
<path style=" stroke:none;fill-rule:nonzero;fill:rgb(47.058824%,56.470591%,61.176473%);fill-opacity:1;" d="M 9.921875 21.417969 C 9.191406 21.417969 8.601562 22.007812 8.601562 22.742188 C 8.601562 23.476562 9.191406 24.066406 9.921875 24.066406 C 10.65625 24.066406 11.246094 23.476562 11.246094 22.742188 C 11.246094 22.007812 10.65625 21.417969 9.921875 21.417969 Z M 9.921875 22.082031 C 10.289062 22.082031 10.585938 22.375 10.585938 22.742188 C 10.585938 23.109375 10.289062 23.402344 9.921875 23.402344 C 9.554688 23.402344 9.261719 23.109375 9.261719 22.742188 C 9.261719 22.375 9.554688 22.082031 9.921875 22.082031 Z M 9.921875 22.082031 "/>
<path style=" stroke:none;fill-rule:nonzero;fill:rgb(47.058824%,56.470591%,61.176473%);fill-opacity:1;" d="M 9.921875 9.511719 C 9.191406 9.511719 8.601562 10.101562 8.601562 10.835938 C 8.601562 11.566406 9.191406 12.15625 9.921875 12.15625 C 10.65625 12.15625 11.246094 11.566406 11.246094 10.835938 C 11.246094 10.101562 10.65625 9.511719 9.921875 9.511719 Z M 9.921875 10.171875 C 10.289062 10.171875 10.585938 10.46875 10.585938 10.835938 C 10.585938 11.199219 10.289062 11.496094 9.921875 11.496094 C 9.554688 11.496094 9.261719 11.199219 9.261719 10.835938 C 9.261719 10.46875 9.554688 10.171875 9.921875 10.171875 Z M 9.921875 10.171875 "/>
<path style="fill:none;stroke-width:12;stroke-linecap:round;stroke-linejoin:round;stroke:rgb(95.686275%,26.274511%,21.176471%);stroke-opacity:1;stroke-miterlimit:4;" d="M 137.611859 -57.515039 L 158.734842 -36.392056 L 185.232311 -68.139025 " transform="matrix(0.062506,0,0,0.062506,0,13.438783)"/>
<path style="fill:none;stroke-width:12;stroke-linecap:round;stroke-linejoin:round;stroke:rgb(95.686275%,26.274511%,21.176471%);stroke-opacity:1;stroke-miterlimit:4;" d="M 137.611859 5.978898 L 158.734842 27.10188 L 185.232311 -4.645088 " transform="matrix(0.062506,0,0,0.062506,0,13.438783)"/>
</g>
</svg>
